files/resources/svgs/general/s-bars-4.svg

<svg width="24" height="24" viewBox="0 0 24 24" fill="none" xmlns="http://www.w3.org/2000/svg">
<path fill-rule="evenodd" clip-rule="evenodd" d="M3 5.25C3 4.83579 3.33579 4.5 3.75 4.5H20.25C20.6642 4.5 21 4.83579 21 5.25C21 5.66421 20.6642 6 20.25 6H3.75C3.33579 6 3 5.66421 3 5.25ZM3 9.75C3 9.33579 3.33579 9 3.75 9H20.25C20.6642 9 21 9.33579 21 9.75C21 10.1642 20.6642 10.5 20.25 10.5H3.75C3.33579 10.5 3 10.1642 3 9.75ZM3 14.25C3 13.8358 3.33579 13.5 3.75 13.5H20.25C20.6642 13.5 21 13.8358 21 14.25C21 14.6642 20.6642 15 20.25 15H3.75C3.33579 15 3 14.6642 3 14.25ZM3 18.75C3 18.3358 3.33579 18 3.75 18H20.25C20.6642 18 21 18.3358 21 18.75C21 19.1642 20.6642 19.5 20.25 19.5H3.75C3.33579 19.5 3 19.1642 3 18.75Z" fill="#0F172A"/>
</svg>

<svg xmlns="http://www.w3.org/2000/svg" viewBox="0 0 24 24" fill="currentColor" aria-hidden="true">
  <path fill-rule="evenodd" d="M3 5.25a.75.75 0 01.75-.75h16.5a.75.75 0 010 1.5H3.75A.75.75 0 013 5.25zm0 4.5A.75.75 0 013.75 9h16.5a.75.75 0 010 1.5H3.75A.75.75 0 013 9.75zm0 4.5a.75.75 0 01.75-.75h16.5a.75.75 0 010 1.5H3.75a.75.75 0 01-.75-.75zm0 4.5a.75.75 0 01.75-.75h16.5a.75.75 0 010 1.5H3.75a.75.75 0 01-.75-.75z" clip-rule="evenodd"/>
</svg>
